azure-patterns/svg-linux.svg

<svg xmlns="http://www.w3.org/2000/svg" viewBox="0 0 112 136">
                                
                            
  <path d="M107.7752,106.8013 C107.7732,106.8003 107.7722,106.7983 107.7722,106.7963 C106.8142,105.7153 106.3582,103.7113 105.8672,101.5763 C105.3782,99.4423 104.8302,97.1413 103.0782,95.6503 C103.0752,95.6463 103.0702,95.6443 103.0672,95.6403 C102.7202,95.3373 102.3632,95.0823 102.0052,94.8683 C101.6452,94.6553 101.2812,94.4823 100.9162,94.3443 C103.3512,87.1233 102.3972,79.9313 99.9382,73.4343 C96.9222,65.4583 91.6552,58.5093 87.6332,53.7563 C83.1302,48.0763 78.7272,42.6853 78.8142,34.7213 C78.9482,22.5683 80.1502,0.0303 58.7632,0.0003 C57.8942,-0.0007 56.9862,0.0353 56.0412,0.1113 C32.1412,2.0343 38.4812,27.2853 38.1262,35.7393 C37.6882,41.9233 36.4352,46.7963 32.1822,52.8403 C27.1872,58.7803 20.1512,68.3963 16.8202,78.4073 C15.2482,83.1303 14.5002,87.9453 15.1902,92.5033 C14.9742,92.6973 14.7692,92.9013 14.5712,93.1093 C13.1052,94.6763 12.0212,96.5733 10.8142,97.8503 C9.6852,98.9773 8.0792,99.4043 6.3112,100.0373 C4.5442,100.6713 2.6042,101.6063 1.4272,103.8653 C1.4272,103.8653 1.4272,103.8673 1.4252,103.8673 C1.4232,103.8703 1.4222,103.8753 1.4192,103.8783 C0.8652,104.9123 0.6852,106.0283 0.6852,107.1593 C0.6852,108.2063 0.8392,109.2663 0.9962,110.2873 C1.3212,112.4113 1.6512,114.4203 1.2132,115.7813 C-0.1838,119.6053 -0.3648,122.2483 0.6202,124.1673 C1.6082,126.0903 3.6362,126.9373 5.9292,127.4173 C10.5152,128.3733 16.7262,128.1363 21.6192,130.7313 L22.0412,129.9373 L21.6242,130.7323 C26.8642,133.4723 32.1762,134.4453 36.4132,133.4773 C39.4872,132.7763 41.9812,130.9463 43.2622,128.1303 C46.5772,128.1143 50.2142,126.7103 56.0412,126.3893 C59.9942,126.0713 64.9322,127.7943 70.6122,127.4783 C70.7602,128.0943 70.9752,128.6873 71.2692,129.2503 C71.2722,129.2553 71.2752,129.2613 71.2782,129.2663 C73.4802,133.6693 77.5702,135.6833 81.9312,135.3393 C86.2962,134.9953 90.9372,132.4213 94.6912,127.9573 L94.0022,127.3793 L94.6952,127.9503 C98.2722,123.6133 104.2072,121.8163 108.1452,119.4423 C110.1122,118.2553 111.7082,116.7693 111.8332,114.6103 C111.9552,112.4533 110.6882,110.0353 107.7752,106.8013" fill="#202020"></path>
  <path d="M110.0365,114.5076 C109.9605,115.8396 108.9965,116.8296 107.2145,117.9026 C103.6545,120.0496 97.3435,121.9186 93.3145,126.7996 C89.8135,130.9646 85.5465,133.2516 81.7885,133.5486 C78.0315,133.8446 74.7895,132.2856 72.8765,128.4496 L72.8735,128.4416 L72.8695,128.4316 C71.6825,126.1746 72.1765,122.6156 73.1755,118.8606 C74.1745,115.1056 75.6105,111.2486 75.8025,108.1156 L75.8025,108.1066 C76.0045,104.0916 76.2305,100.5846 76.9045,97.8786 C77.5795,95.1716 78.6415,93.3406 80.5235,92.3106 C80.6115,92.2636 80.6985,92.2176 80.7855,92.1746 C80.9975,95.6516 82.7205,99.1996 85.7625,99.9656 C89.0925,100.8436 93.8915,97.9866 95.9185,95.6566 C96.3235,95.6406 96.7185,95.6196 97.1015,95.6106 C98.8805,95.5676 100.3695,95.6706 101.8945,97.0026 L101.8995,97.0066 L101.9045,97.0106 C103.0755,98.0026 103.6325,99.8776 104.1155,101.9766 C104.5985,104.0776 104.9825,106.3636 106.4325,107.9946 L106.4335,107.9956 L106.4345,107.9996 C109.2195,111.0876 110.1145,113.1746 110.0365,114.5076" fill="#FFCD00"></path>
  <path d="M42.3724,124.3523 L42.3714,124.3613 L42.3714,124.3733 C42.0494,128.5923 39.6694,130.8903 36.0144,131.7253 C32.3624,132.5603 27.4084,131.7283 22.4624,129.1423 C22.4604,129.1423 22.4594,129.1403 22.4574,129.1403 C16.9844,126.2413 10.4744,126.5303 6.2974,125.6573 C4.2094,125.2213 2.8454,124.5653 2.2204,123.3473 C1.5964,122.1273 1.5814,120.0013 2.9104,116.3763 L2.9164,116.3603 L2.9214,116.3443 C3.5794,114.3163 3.0924,112.0973 2.7734,110.0143 C2.4544,107.9333 2.2984,106.0373 3.0094,104.7183 L3.0164,104.7053 C3.9264,102.9503 5.2624,102.3223 6.9184,101.7293 C8.5774,101.1343 10.5424,100.6673 12.0934,99.1113 L12.1034,99.1023 L12.1114,99.0953 C13.5454,97.5813 14.6234,95.6833 15.8844,94.3373 C16.9484,93.2003 18.0134,92.4473 19.6184,92.4363 C19.6374,92.4383 19.6544,92.4383 19.6734,92.4363 C19.9544,92.4383 20.2524,92.4623 20.5684,92.5113 C22.6994,92.8333 24.5564,94.3223 26.3464,96.7493 L31.5134,106.1663 L31.5154,106.1713 L31.5184,106.1743 C32.8924,109.0453 35.7964,112.2033 38.2564,115.4243 C40.7174,118.6443 42.6204,121.8773 42.3724,124.3523" fill="#FFCD00"></path>
  <path d="M68.141,36.5649 C67.726,35.7519 66.878,34.9789 65.436,34.3869 L65.433,34.3859 L65.428,34.3839 C62.428,33.0989 61.126,33.0079 59.452,31.9189 C56.726,30.1669 54.474,29.5529 52.602,29.5609 C51.622,29.5639 50.746,29.7379 49.962,30.0089 C47.682,30.7939 46.168,32.4299 45.22,33.3279 L45.218,33.3299 C45.218,33.3309 45.217,33.3309 45.217,33.3329 C45.03,33.5099 44.79,33.6709 44.209,34.0969 C43.624,34.5239 42.746,35.1679 41.484,36.1149 C40.362,36.9559 39.997,38.0519 40.386,39.3349 C40.772,40.6179 42.01,42.0979 44.273,43.3779 L44.276,43.3809 L44.281,43.3829 C45.685,44.2079 46.645,45.3209 47.746,46.2059 C48.297,46.6479 48.876,47.0429 49.574,47.3409 C50.271,47.6389 51.086,47.8409 52.105,47.9009 C54.497,48.0399 56.259,47.3219 57.813,46.4319 C59.371,45.5429 60.69,44.4559 62.204,43.9649 L62.207,43.9629 L62.21,43.9619 C65.313,42.9929 67.526,41.0409 68.218,39.1859 C68.565,38.2579 68.555,37.3779 68.141,36.5649" fill="#FFCD00"></path>
  <path d="M60.2689,41.1448 C57.8009,42.4318 54.9169,43.9918 51.8499,43.9918 C48.7829,43.9918 46.3609,42.5748 44.6189,41.1938 C43.7469,40.5038 43.0399,39.8178 42.5069,39.3188 C41.5819,38.5888 41.6919,37.5638 42.0719,37.5938 C42.7099,37.6738 42.8059,38.5128 43.2069,38.8878 C43.7499,39.3958 44.4309,40.0538 45.2539,40.7078 C46.9019,42.0128 49.0989,43.2828 51.8499,43.2828 C54.5959,43.2828 57.8009,41.6708 59.7579,40.5738 C60.8659,39.9518 62.2769,38.8368 63.4279,37.9918 C64.3089,37.3458 64.2769,36.5668 65.0039,36.6518 C65.7309,36.7368 65.1929,37.5138 64.1749,38.4028 C63.1559,39.2908 61.5629,40.4698 60.2689,41.1448" fill="#202020"></path>
  <path d="M98.0663,93.8179 C97.7233,93.8049 97.3863,93.8069 97.0573,93.8149 C97.0273,93.8159 96.9983,93.8159 96.9663,93.8159 C97.8143,91.1399 95.9393,89.1649 90.9423,86.9049 C85.7613,84.6269 81.6323,84.8519 80.9353,89.4759 C80.8913,89.7179 80.8553,89.9649 80.8283,90.2149 C80.4403,90.3509 80.0513,90.5209 79.6603,90.7339 C77.2283,92.0659 75.8993,94.4809 75.1603,97.4449 C74.4233,100.4049 74.2103,103.9829 74.0083,108.0059 L74.0083,108.0089 C73.8833,110.0309 73.0503,112.7669 72.2083,115.6649 C63.7203,121.7199 51.9413,124.3429 41.9383,117.5159 C41.2613,116.4439 40.4833,115.3819 39.6833,114.3339 C39.1723,113.6649 38.6463,113.0009 38.1263,112.3439 C39.1513,112.3459 40.0243,112.1769 40.7303,111.8579 C41.6073,111.4589 42.2223,110.8209 42.5283,110.0009 C43.1383,108.3609 42.5253,106.0469 40.5733,103.4039 C38.6213,100.7619 35.3153,97.7809 30.4573,94.8009 L30.4573,94.7999 C26.8873,92.5789 24.8933,89.8579 23.9583,86.9039 C23.0233,83.9479 23.1533,80.7519 23.8753,77.5979 C25.2573,71.5419 28.8083,65.6519 31.0743,61.9559 C31.6833,61.5079 31.2923,62.7899 28.7793,67.4549 C26.5293,71.7189 22.3203,81.5599 28.0823,89.2429 C28.2363,83.7759 29.5423,78.2009 31.7343,72.9849 C34.9263,65.7489 41.6043,53.1979 42.1343,43.1949 C42.4093,43.3939 43.3483,44.0279 43.7663,44.2669 C43.7673,44.2679 43.7673,44.2679 43.7693,44.2679 C44.9943,44.9889 45.9143,46.0439 47.1053,47.0019 C48.3003,47.9609 49.7913,48.7899 52.0453,48.9209 C52.2613,48.9329 52.4733,48.9399 52.6793,48.9399 C55.0033,48.9399 56.8143,48.1819 58.3233,47.3189 C59.9633,46.3809 61.2733,45.3429 62.5153,44.9389 C62.5163,44.9369 62.5183,44.9369 62.5193,44.9369 C65.1443,44.1169 67.2293,42.6649 68.4153,40.9729 C70.4543,49.0089 75.1953,60.6169 78.2433,66.2809 C79.8633,69.2849 83.0863,75.6709 84.4783,83.3639 C85.3603,83.3369 86.3333,83.4649 87.3723,83.7319 C91.0133,74.2929 84.2853,64.1279 81.2083,61.2969 C79.9663,60.0909 79.9063,59.5509 80.5233,59.5759 C83.8593,62.5289 88.2423,68.4639 89.8363,75.1649 C90.5633,78.2209 90.7183,81.4339 89.9393,84.6049 C90.3183,84.7619 90.7073,84.9339 91.1003,85.1209 C96.9443,87.9659 99.1043,90.4409 98.0663,93.8179" fill="#FFFFFF"></path>
  <path d="M68.4154,27.3074 C68.4284,28.8994 68.1534,30.2554 67.5494,31.6394 C67.2054,32.4284 66.8094,33.0914 66.3334,33.6654 C66.1724,33.5884 66.0054,33.5144 65.8324,33.4434 C65.2304,33.1864 64.6994,32.9744 64.2224,32.7944 C63.7454,32.6144 63.3734,32.4924 62.9904,32.3594 C63.2684,32.0234 63.8154,31.6274 64.0194,31.1304 C64.3284,30.3804 64.4794,29.6484 64.5084,28.7754 C64.5084,28.7404 64.5194,28.7104 64.5194,28.6694 C64.5374,27.8334 64.4264,27.1184 64.1824,26.3864 C63.9264,25.6174 63.6014,25.0654 63.1304,24.6054 C62.6594,24.1464 62.1884,23.9384 61.6234,23.9194 C61.5964,23.9174 61.5714,23.9174 61.5444,23.9174 C61.0144,23.9194 60.5534,24.1024 60.0774,24.5004 C59.5764,24.9184 59.2054,25.4534 58.8964,26.1984 C58.5884,26.9434 58.4374,27.6814 58.4074,28.5594 C58.4024,28.5934 58.4024,28.6234 58.4024,28.6584 C58.3914,29.1414 58.4234,29.5834 58.4974,30.0124 C57.4114,29.4714 56.0224,29.0764 55.0624,28.8474 C55.0074,28.4324 54.9764,28.0054 54.9664,27.5564 L54.9664,27.4354 C54.9494,25.8474 55.2094,24.4854 55.8204,23.1034 C56.4314,21.7194 57.1864,20.7244 58.2504,19.9154 C59.3154,19.1074 60.3624,18.7364 61.6014,18.7234 L61.6594,18.7234 C62.8714,18.7234 63.9084,19.0804 64.9734,19.8524 C66.0544,20.6384 66.8344,21.6194 67.4624,22.9924 C68.0784,24.3314 68.3744,25.6394 68.4044,27.1904 C68.4044,27.2314 68.4044,27.2664 68.4154,27.3074" fill="#FFFFFF"></path>
  <path d="M50.096,28.8935 C49.937,28.9395 49.782,28.9875 49.629,29.0405 C48.761,29.3405 48.072,29.6705 47.406,30.1115 C47.471,29.6505 47.48,29.1835 47.429,28.6605 C47.425,28.6325 47.425,28.6085 47.425,28.5805 C47.355,27.8875 47.208,27.3065 46.964,26.7195 C46.703,26.1095 46.411,25.6785 46.028,25.3465 C45.681,25.0465 45.352,24.9075 44.99,24.9115 C44.953,24.9115 44.915,24.9125 44.878,24.9155 C44.471,24.9505 44.133,25.1495 43.812,25.5395 C43.493,25.9275 43.284,26.4105 43.132,27.0515 C42.981,27.6905 42.941,28.3185 43.004,29.0395 C43.004,29.0685 43.011,29.0915 43.011,29.1205 C43.08,29.8195 43.221,30.4005 43.47,30.9875 C43.725,31.5915 44.022,32.0225 44.406,32.3535 C44.471,32.4095 44.534,32.4595 44.596,32.5035 C44.199,32.8115 43.932,33.0295 43.603,33.2695 C43.393,33.4225 43.144,33.6055 42.854,33.8205 C42.221,33.2265 41.727,32.4825 41.295,31.4985 C40.783,30.3375 40.51,29.1745 40.428,27.8015 L40.428,27.7905 C40.352,26.4175 40.487,25.2365 40.864,24.0155 C41.242,22.7935 41.747,21.9105 42.481,21.1845 C43.214,20.4565 43.952,20.0905 44.843,20.0445 C44.912,20.0415 44.98,20.0395 45.048,20.0395 C45.854,20.0415 46.574,20.3095 47.319,20.9045 C48.126,21.5505 48.737,22.3755 49.249,23.5385 C49.762,24.7015 50.034,25.8645 50.11,27.2375 L50.11,27.2485 C50.147,27.8245 50.142,28.3675 50.096,28.8935" fill="#FFFFFF"></path>
  <path d="M54.1454,32.1775 C54.2474,32.5055 54.7754,32.4505 55.0804,32.6085 C55.3484,32.7465 55.5634,33.0485 55.8644,33.0565 C56.1514,33.0655 56.5994,32.9575 56.6364,32.6725 C56.6864,32.2955 56.1364,32.0565 55.7824,31.9185 C55.3274,31.7415 54.7434,31.6515 54.3164,31.8885 C54.2184,31.9435 54.1114,32.0705 54.1454,32.1775" fill="#202020"></path>
  <path d="M51.0262,32.1775 C50.9242,32.5055 50.3962,32.4505 50.0902,32.6085 C49.8232,32.7465 49.6082,33.0485 49.3062,33.0565 C49.0192,33.0655 48.5722,32.9575 48.5352,32.6725 C48.4852,32.2955 49.0352,32.0565 49.3892,31.9185 C49.8442,31.7415 50.4272,31.6515 50.8552,31.8885 C50.9522,31.9435 51.0592,32.0705 51.0262,32.1775" fill="#202020"></path>
</svg>

<svg xmlns="http://www.w3.org/2000/svg" viewBox="0 0 112 136"><path d="M107.775 106.801a.005.005 0 0 1-.003-.005c-.958-1.08-1.414-3.085-1.905-5.22-.489-2.134-1.037-4.435-2.789-5.926-.003-.004-.008-.006-.01-.01a6.99 6.99 0 0 0-2.151-1.296c2.434-7.22 1.48-14.413-.979-20.91-3.016-7.976-8.283-14.925-12.305-19.678-4.503-5.68-8.906-11.07-8.819-19.035.134-12.153 1.336-34.69-20.05-34.72a33.501 33.501 0 0 0-2.723.11c-23.9 1.923-17.56 27.174-17.915 35.628-.438 6.184-1.69 11.057-5.944 17.101-4.995 5.94-12.03 15.556-15.362 25.567-1.572 4.723-2.32 9.538-1.63 14.096-.216.194-.42.398-.619.606-1.466 1.567-2.55 3.464-3.757 4.741-1.129 1.127-2.735 1.554-4.503 2.187-1.767.634-3.707 1.57-4.884 3.828 0 0 0 .002-.002.002-.002.003-.003.008-.006.011-.554 1.034-.734 2.15-.734 3.281 0 1.047.154 2.107.311 3.128.325 2.124.655 4.133.217 5.494-1.397 3.824-1.578 6.467-.593 8.386.988 1.923 3.016 2.77 5.31 3.25 4.585.956 10.796.72 15.69 3.314l.421-.794-.417.795c5.24 2.74 10.552 3.713 14.79 2.745 3.073-.7 5.567-2.53 6.848-5.347 3.315-.016 6.952-1.42 12.78-1.74 3.952-.319 8.89 1.404 14.57 1.088.148.616.363 1.21.657 1.772l.01.016c2.201 4.403 6.291 6.417 10.652 6.073 4.365-.344 9.006-2.918 12.76-7.382l-.689-.578.693.571c3.577-4.337 9.512-6.134 13.45-8.508 1.967-1.187 3.563-2.673 3.688-4.832.122-2.157-1.145-4.575-4.058-7.809" fill="#202020"/><path d="M110.037 114.508c-.077 1.332-1.04 2.322-2.823 3.395-3.56 2.147-9.87 4.016-13.9 8.897-3.5 4.165-7.767 6.452-11.525 6.749-3.758.296-7-1.263-8.913-5.1l-.002-.007-.004-.01c-1.188-2.257-.694-5.816.305-9.571 1-3.755 2.436-7.612 2.627-10.745v-.01c.202-4.014.428-7.521 1.102-10.227.675-2.707 1.737-4.538 3.62-5.568.088-.047.174-.093.261-.136.213 3.477 1.936 7.025 4.978 7.79 3.33.879 8.128-1.978 10.155-4.308.405-.016.8-.037 1.183-.046 1.78-.043 3.269.06 4.793 1.392l.005.004.005.004c1.172.992 1.728 2.867 2.212 4.966.483 2.1.867 4.387 2.317 6.018l.001.005c2.785 3.088 3.68 5.175 3.603 6.508M42.372 124.352V124.373c-.323 4.22-2.703 6.517-6.358 7.352-3.652.835-8.606.003-13.552-2.583l-.005-.002c-5.473-2.899-11.983-2.61-16.16-3.483-2.088-.436-3.452-1.092-4.077-2.31-.624-1.22-.639-3.346.69-6.97l.006-.017.005-.016c.658-2.028.171-4.247-.148-6.33-.319-2.08-.475-3.977.236-5.296l.007-.013c.91-1.755 2.246-2.383 3.902-2.976 1.66-.595 3.624-1.062 5.175-2.618l.01-.009.008-.007c1.434-1.514 2.512-3.412 3.773-4.758 1.064-1.137 2.13-1.89 3.734-1.9a6.125 6.125 0 0 1 .95.075c2.131.321 3.988 1.81 5.778 4.237l5.167 9.417.002.005.003.003c1.374 2.871 4.278 6.03 6.738 9.25 2.461 3.22 4.364 6.453 4.116 8.928M68.141 36.565c-.415-.813-1.263-1.586-2.705-2.178l-.003-.001-.005-.002c-3-1.285-4.302-1.376-5.976-2.465-2.726-1.752-4.978-2.366-6.85-2.358a8.09 8.09 0 0 0-2.64.448c-2.28.785-3.794 2.42-4.742 3.319l-.002.002-.001.003c-.187.177-.427.338-1.008.764-.585.427-1.463 1.07-2.725 2.018-1.122.84-1.487 1.937-1.098 3.22.386 1.283 1.624 2.763 3.887 4.043l.003.003.005.002c1.404.825 2.364 1.938 3.465 2.823.551.442 1.13.837 1.828 1.135.697.298 1.512.5 2.531.56 2.392.139 4.154-.58 5.708-1.47 1.558-.888 2.877-1.975 4.391-2.466l.003-.002.003-.001c3.103-.97 5.316-2.921 6.008-4.776.347-.928.337-1.808-.077-2.621" fill="#FFCD00"/><path d="M60.269 41.145c-2.468 1.287-5.352 2.847-8.42 2.847-3.066 0-5.488-1.417-7.23-2.798-.872-.69-1.58-1.376-2.112-1.875-.925-.73-.815-1.755-.435-1.725.638.08.734.919 1.135 1.294.543.508 1.224 1.166 2.047 1.82 1.648 1.305 3.845 2.575 6.596 2.575 2.746 0 5.95-1.612 7.908-2.71 1.108-.621 2.519-1.736 3.67-2.581.88-.646.849-1.425 1.576-1.34.727.085.189.862-.83 1.75-1.018.889-2.611 2.068-3.905 2.743" fill="#202020"/><path d="M98.066 93.818a16.194 16.194 0 0 0-1.1-.002c.848-2.676-1.027-4.651-6.024-6.911-5.18-2.278-9.31-2.053-10.007 2.57-.044.243-.08.49-.107.74a7.885 7.885 0 0 0-1.168.519c-2.432 1.332-3.76 3.747-4.5 6.71-.737 2.96-.95 6.539-1.152 10.562v.003c-.125 2.022-.958 4.758-1.8 7.656-8.488 6.055-20.267 8.678-30.27 1.85-.677-1.071-1.455-2.133-2.255-3.181-.51-.67-1.037-1.333-1.557-1.99 1.025.002 1.898-.167 2.604-.486.877-.4 1.492-1.037 1.798-1.857.61-1.64-.003-3.954-1.955-6.597-1.952-2.642-5.258-5.623-10.116-8.603V94.8c-3.57-2.221-5.564-4.942-6.499-7.896-.935-2.956-.805-6.152-.083-9.306 1.382-6.056 4.933-11.946 7.2-15.642.608-.448.217.834-2.296 5.499-2.25 4.264-6.459 14.105-.697 21.788.154-5.467 1.46-11.042 3.652-16.258 3.192-7.236 9.87-19.787 10.4-29.79.275.199 1.214.833 1.632 1.072h.003c1.225.722 2.145 1.777 3.336 2.735 1.195.959 2.686 1.788 4.94 1.919.216.012.428.019.634.019 2.324 0 4.135-.758 5.644-1.621 1.64-.938 2.95-1.976 4.192-2.38.001-.002.003-.002.004-.002 2.625-.82 4.71-2.272 5.896-3.964 2.04 8.036 6.78 19.644 9.828 25.308 1.62 3.004 4.843 9.39 6.235 17.083.882-.027 1.855.1 2.894.368 3.641-9.44-3.087-19.604-6.164-22.435-1.242-1.206-1.302-1.746-.685-1.721 3.336 2.953 7.72 8.888 9.313 15.589.727 3.056.882 6.269.103 9.44.38.157.768.329 1.161.516 5.844 2.845 8.004 5.32 6.966 8.697M68.415 27.307c.013 1.592-.262 2.948-.866 4.332-.344.79-.74 1.452-1.216 2.026a9.674 9.674 0 0 0-.5-.222 40.54 40.54 0 0 0-1.61-.649c-.478-.18-.85-.302-1.233-.435.278-.336.825-.732 1.03-1.229.308-.75.46-1.482.488-2.355 0-.035.011-.065.011-.106a6.519 6.519 0 0 0-.337-2.283c-.256-.769-.58-1.32-1.052-1.78-.47-.46-.942-.668-1.507-.687-.027-.002-.052-.002-.079-.002-.53.002-.99.185-1.467.583-.5.418-.872.953-1.18 1.698-.309.745-.46 1.483-.49 2.361-.005.034-.005.064-.005.1-.01.482.021.924.095 1.353-1.086-.54-2.475-.936-3.435-1.165a11.791 11.791 0 0 1-.096-1.29v-.122c-.017-1.588.243-2.95.854-4.332.611-1.384 1.366-2.379 2.43-3.188 1.065-.808 2.112-1.179 3.351-1.192h.058c1.212 0 2.25.357 3.314 1.13 1.081.785 1.861 1.766 2.49 3.14.615 1.338.911 2.646.941 4.197 0 .041 0 .076.011.117M50.096 28.893a9.425 9.425 0 0 0-.467.148c-.868.3-1.557.63-2.223 1.07.065-.46.074-.928.023-1.45-.004-.029-.004-.053-.004-.08a6.336 6.336 0 0 0-.461-1.861c-.261-.61-.553-1.041-.936-1.373-.347-.3-.676-.44-1.038-.436-.037 0-.075.002-.112.005-.407.035-.745.233-1.066.623-.319.388-.528.871-.68 1.512a6.082 6.082 0 0 0-.128 1.989c0 .029.007.052.007.08.069.7.21 1.28.459 1.867.255.605.552 1.036.936 1.366.065.056.128.106.19.15-.397.309-.664.526-.993.767-.21.152-.459.335-.749.55-.633-.593-1.127-1.337-1.559-2.322-.512-1.16-.785-2.324-.867-3.697v-.01c-.076-1.373.059-2.555.436-3.776.378-1.221.883-2.105 1.617-2.83.733-.729 1.471-1.095 2.362-1.14.069-.004.137-.006.205-.006.806.002 1.526.27 2.271.865.807.646 1.418 1.471 1.93 2.634.513 1.163.785 2.326.861 3.7v.01c.037.576.032 1.12-.014 1.645" fill="#FFF"/><path d="M54.145 32.178c.102.328.63.273.935.43.268.139.483.44.784.449.287.008.735-.1.772-.385.05-.377-.5-.615-.854-.753-.455-.178-1.039-.268-1.466-.03-.098.055-.205.182-.17.289M51.026 32.178c-.102.328-.63.273-.936.43-.267.139-.482.44-.784.449-.287.008-.734-.1-.77-.385-.05-.377.5-.615.853-.753.455-.178 1.038-.268 1.466-.03.097.055.204.182.171.289" fill="#202020"/></svg>
